Icons/com_evernote.svg

<svg viewBox="0 0 48 48" xmlns:xlink="http://www.w3.org/1999/xlink">
 <defs>
  <linearGradient id="0">
   <stop stop-opacity="0"/>
   <stop offset="1"/>
  </linearGradient>
  <linearGradient xlink:href="#0" id="1" gradientUnits="userSpaceOnUse" gradientTransform="translate(4e-7,-48)" y1="47" x2="0" y2="1"/>
  <clipPath id="2">
   <g transform="translate(0,-1004.3622)">
    <rect rx="4" y="1005.36" x="1" height="46" width="46" fill="#1890d0"/>
   </g>
  </clipPath>
  <clipPath id="3">
   <g transform="translate(0,-1004.3622)">
    <rect rx="4" y="1005.36" x="1" height="46" width="46" fill="#1890d0"/>
   </g>
  </clipPath>
 </defs>
 <g>
  <g transform="translate(0,-1004.3622)">
   <path d="m 5,1006.3622 c -2.216,0 -4,1.784 -4,4 l 0,37.25 c 0,2.216 1.784,4 4,4 l 38,0 c 2.216,0 4,-1.784 4,-4 l 0,-37.25 c 0,-2.216 -1.784,-4 -4,-4 l -38,0 z m -4,41.5 0,0.5 c 0,2.216 1.784,4 4,4 l 38,0 c 2.216,0 4,-1.784 4,-4 l 0,-0.5 c 0,2.216 -1.784,4 -4,4 l -38,0 c -2.216,0 -4,-1.784 -4,-4 z" opacity="0.02"/>
   <path d="m 1,1047.6122 0,0.25 c 0,2.216 1.784,4 4,4 l 38,0 c 2.216,0 4,-1.784 4,-4 l 0,-0.25 c 0,2.216 -1.784,4 -4,4 l -38,0 c -2.216,0 -4,-1.784 -4,-4 z" opacity="0.05"/>
   <rect width="46" height="46" x="1" y="1005.61" rx="4" opacity="0.1"/>
  </g>
 </g>
 <g>
  <g transform="translate(0,-1004.3622)">
   <rect rx="4" y="1005.36" x="1" height="46" width="46" fill="#6cce3d"/>
  </g>
 </g>
 <g>
  <rect transform="scale(1,-1)" width="46" height="46" x="1" y="-46.998" rx="4" opacity="0.1" fill="url(#1)"/>
 </g>
 <g>
  <g clip-path="url(#2)">
   <g opacity="0.1">
    <g>
     <path d="M 15.199219 16.035156 L 17.667969 16.035156 C 17.808594 16.035156 17.921875 15.921875 17.921875 15.78125 C 17.921875 15.78125 17.890625 13.691406 17.890625 13.109375 L 17.890625 13.101562 C 17.890625 12.625 17.992188 12.207031 18.171875 11.859375 L 18.253906 11.703125 C 18.246094 11.703125 18.234375 11.707031 18.226562 11.71875 L 13.429688 16.417969 C 13.421875 16.425781 13.417969 16.4375 13.414062 16.449219 C 13.511719 16.398438 13.648438 16.332031 13.667969 16.324219 C 14.085938 16.136719 14.589844 16.035156 15.199219 16.035156 Z M 34.398438 15.523438 C 34.203125 14.484375 33.582031 13.976562 33.015625 13.773438 C 32.40625 13.554688 31.171875 13.332031 29.625 13.152344 C 28.375 13.003906 26.910156 13.015625 26.023438 13.042969 C 25.917969 12.324219 25.40625 11.667969 24.835938 11.4375 C 23.3125 10.832031 20.960938 10.980469 20.355469 11.148438 C 19.878906 11.277344 19.347656 11.550781 19.050781 11.96875 C 18.851562 12.25 18.722656 12.609375 18.722656 13.109375 C 18.722656 13.390625 18.730469 14.058594 18.738281 14.652344 C 18.746094 15.246094 18.753906 15.78125 18.753906 15.78125 C 18.753906 16.3125 18.320312 16.742188 17.78125 16.746094 L 15.3125 16.746094 C 14.785156 16.746094 14.382812 16.832031 14.078125 16.96875 C 13.769531 17.109375 13.550781 17.292969 13.386719 17.515625 C 13.054688 17.953125 13 18.492188 13 19.042969 C 13 19.042969 13.003906 19.492188 13.113281 20.367188 C 13.207031 21.039062 13.945312 25.75 14.648438 27.183594 C 14.921875 27.742188 15.101562 27.972656 15.636719 28.21875 C 16.828125 28.722656 19.554688 29.285156 20.828125 29.445312 C 22.105469 29.605469 22.902344 29.945312 23.378906 28.957031 C 23.382812 28.957031 23.476562 28.710938 23.605469 28.355469 C 24.019531 27.117188 24.074219 26.015625 24.074219 25.21875 C 24.074219 25.140625 24.195312 25.136719 24.195312 25.21875 C 24.195312 25.78125 24.085938 27.769531 25.605469 28.304688 C 26.207031 28.515625 27.449219 28.703125 28.714844 28.847656 C 29.859375 28.976562 30.6875 29.421875 30.6875 32.324219 C 30.6875 34.085938 30.3125 34.328125 28.355469 34.328125 C 26.765625 34.328125 26.160156 34.371094 26.160156 33.121094 C 26.160156 32.113281 27.167969 32.21875 27.917969 32.21875 C 28.25 32.21875 28.007812 31.972656 28.007812 31.351562 C 28.007812 30.734375 28.398438 30.375 28.027344 30.367188 C 25.445312 30.296875 23.921875 30.363281 23.921875 33.558594 C 23.921875 36.460938 25.046875 37 28.714844 37 C 31.589844 37 32.605469 36.90625 33.792969 33.261719 C 34.027344 32.542969 34.597656 30.347656 34.941406 26.664062 C 35.15625 24.332031 34.734375 17.300781 34.398438 15.523438 Z M 29.386719 23.296875 C 29.03125 23.285156 28.6875 23.308594 28.371094 23.359375 C 28.460938 22.640625 28.757812 21.761719 29.816406 21.800781 C 30.992188 21.839844 31.15625 22.9375 31.160156 23.679688 C 30.664062 23.460938 30.054688 23.320312 29.386719 23.296875 Z M 29.386719 23.296875 "/>
    </g>
   </g>
  </g>
 </g>
 <g>
  <g clip-path="url(#3)">
   <g transform="translate(0,-1)">
    <g>
     <path d="M 15.199219 16.035156 L 17.667969 16.035156 C 17.808594 16.035156 17.921875 15.921875 17.921875 15.78125 C 17.921875 15.78125 17.890625 13.691406 17.890625 13.109375 L 17.890625 13.101562 C 17.890625 12.625 17.992188 12.207031 18.171875 11.859375 L 18.253906 11.703125 C 18.246094 11.703125 18.234375 11.707031 18.226562 11.71875 L 13.429688 16.417969 C 13.421875 16.425781 13.417969 16.4375 13.414062 16.449219 C 13.511719 16.398438 13.648438 16.332031 13.667969 16.324219 C 14.085938 16.136719 14.589844 16.035156 15.199219 16.035156 Z M 34.398438 15.523438 C 34.203125 14.484375 33.582031 13.976562 33.015625 13.773438 C 32.40625 13.554688 31.171875 13.332031 29.625 13.152344 C 28.375 13.003906 26.910156 13.015625 26.023438 13.042969 C 25.917969 12.324219 25.40625 11.667969 24.835938 11.4375 C 23.3125 10.832031 20.960938 10.980469 20.355469 11.148438 C 19.878906 11.277344 19.347656 11.550781 19.050781 11.96875 C 18.851562 12.25 18.722656 12.609375 18.722656 13.109375 C 18.722656 13.390625 18.730469 14.058594 18.738281 14.652344 C 18.746094 15.246094 18.753906 15.78125 18.753906 15.78125 C 18.753906 16.3125 18.320312 16.742188 17.78125 16.746094 L 15.3125 16.746094 C 14.785156 16.746094 14.382812 16.832031 14.078125 16.96875 C 13.769531 17.109375 13.550781 17.292969 13.386719 17.515625 C 13.054688 17.953125 13 18.492188 13 19.042969 C 13 19.042969 13.003906 19.492188 13.113281 20.367188 C 13.207031 21.039062 13.945312 25.75 14.648438 27.183594 C 14.921875 27.742188 15.101562 27.972656 15.636719 28.21875 C 16.828125 28.722656 19.554688 29.285156 20.828125 29.445312 C 22.105469 29.605469 22.902344 29.945312 23.378906 28.957031 C 23.382812 28.957031 23.476562 28.710938 23.605469 28.355469 C 24.019531 27.117188 24.074219 26.015625 24.074219 25.21875 C 24.074219 25.140625 24.195312 25.136719 24.195312 25.21875 C 24.195312 25.78125 24.085938 27.769531 25.605469 28.304688 C 26.207031 28.515625 27.449219 28.703125 28.714844 28.847656 C 29.859375 28.976562 30.6875 29.421875 30.6875 32.324219 C 30.6875 34.085938 30.3125 34.328125 28.355469 34.328125 C 26.765625 34.328125 26.160156 34.371094 26.160156 33.121094 C 26.160156 32.113281 27.167969 32.21875 27.917969 32.21875 C 28.25 32.21875 28.007812 31.972656 28.007812 31.351562 C 28.007812 30.734375 28.398438 30.375 28.027344 30.367188 C 25.445312 30.296875 23.921875 30.363281 23.921875 33.558594 C 23.921875 36.460938 25.046875 37 28.714844 37 C 31.589844 37 32.605469 36.90625 33.792969 33.261719 C 34.027344 32.542969 34.597656 30.347656 34.941406 26.664062 C 35.15625 24.332031 34.734375 17.300781 34.398438 15.523438 Z M 29.386719 23.296875 C 29.03125 23.285156 28.6875 23.308594 28.371094 23.359375 C 28.460938 22.640625 28.757812 21.761719 29.816406 21.800781 C 30.992188 21.839844 31.15625 22.9375 31.160156 23.679688 C 30.664062 23.460938 30.054688 23.320312 29.386719 23.296875 Z M 29.386719 23.296875 " fill="#2d2d2d"/>
    </g>
   </g>
  </g>
 </g>
 <g>
  <g transform="translate(0,-1004.3622)">
   <path d="m 1,1043.3622 0,4 c 0,2.216 1.784,4 4,4 l 38,0 c 2.216,0 4,-1.784 4,-4 l 0,-4 c 0,2.216 -1.784,4 -4,4 l -38,0 c -2.216,0 -4,-1.784 -4,-4 z" opacity="0.1"/>
  </g>
 </g>
</svg>

<svg viewBox="0 0 48 48"><defs><linearGradient id="linearGradient3764" x1="1" x2="47" gradientUnits="userSpaceOnUse" gradientTransform="translate(-48.000001,0.00221467)"><stop stop-color="#63c632" stop-opacity="1"/><stop offset="1" stop-color="#6cce3d" stop-opacity="1"/></linearGradient><clipPath id="clipPath-963064106"><g transform="translate(0,-1004.3622)"><rect rx="4" y="1005.36" x="1" height="46" width="46" fill="#1890d0"/></g></clipPath><clipPath id="clipPath-977433026"><g transform="translate(0,-1004.3622)"><rect rx="4" y="1005.36" x="1" height="46" width="46" fill="#1890d0"/></g></clipPath></defs><g><path d="m 1 43 l 0 0.25 c 0 2.216 1.784 4 4 4 l 38 0 c 2.216 0 4 -1.784 4 -4 l 0 -0.25 c 0 2.216 -1.784 4 -4 4 l -38 0 c -2.216 0 -4 -1.784 -4 -4 z m 0 0.5 l 0 0.5 c 0 2.216 1.784 4 4 4 l 38 0 c 2.216 0 4 -1.784 4 -4 l 0 -0.5 c 0 2.216 -1.784 4 -4 4 l -38 0 c -2.216 0 -4 -1.784 -4 -4 z" opacity="0.02"/><path d="m 1 43.25 l 0 0.25 c 0 2.216 1.784 4 4 4 l 38 0 c 2.216 0 4 -1.784 4 -4 l 0 -0.25 c 0 2.216 -1.784 4 -4 4 l -38 0 c -2.216 0 -4 -1.784 -4 -4 z" opacity="0.05"/><path d="m 1 43 l 0 0.25 c 0 2.216 1.784 4 4 4 l 38 0 c 2.216 0 4 -1.784 4 -4 l 0 -0.25 c 0 2.216 -1.784 4 -4 4 l -38 0 c -2.216 0 -4 -1.784 -4 -4 z" opacity="0.1"/></g><g><rect width="46" height="46" x="-47" y="1" rx="4" transform="matrix(0,-1,1,0,0,0)" fill="url(#linearGradient3764)" fill-opacity="1"/></g><g><g clip-path="url(#clipPath-963064106)"><g opacity="0.1"><!-- color: #6cce3d --><g><path d="m 15.199 16.04 l 2.469 0 c 0.141 0 0.254 -0.113 0.254 -0.254 c 0 0 -0.031 -2.09 -0.031 -2.672 l 0 -0.008 c 0 -0.477 0.102 -0.895 0.281 -1.242 l 0.082 -0.156 c -0.008 0 -0.02 0.004 -0.027 0.016 l -4.797 4.699 c -0.008 0.008 -0.012 0.02 -0.016 0.031 c 0.098 -0.051 0.234 -0.117 0.254 -0.125 c 0.418 -0.188 0.922 -0.289 1.531 -0.289 m 19.2 -0.512 c -0.195 -1.039 -0.816 -1.547 -1.383 -1.75 c -0.609 -0.219 -1.844 -0.441 -3.391 -0.621 c -1.25 -0.148 -2.715 -0.137 -3.602 -0.109 c -0.105 -0.719 -0.617 -1.375 -1.188 -1.605 c -1.523 -0.605 -3.875 -0.457 -4.48 -0.289 c -0.477 0.129 -1.01 0.402 -1.305 0.82 c -0.199 0.281 -0.328 0.641 -0.328 1.141 c 0 0.281 0.008 0.949 0.016 1.543 c 0.008 0.594 0.016 1.129 0.016 1.129 c 0 0.531 -0.434 0.961 -0.973 0.965 l -2.469 0 c -0.527 0 -0.93 0.086 -1.234 0.223 c -0.309 0.141 -0.527 0.324 -0.691 0.547 c -0.332 0.438 -0.387 0.977 -0.387 1.527 c 0 0 0.004 0.449 0.113 1.324 c 0.094 0.672 0.832 5.383 1.535 6.816 c 0.273 0.559 0.453 0.789 0.988 1.035 c 1.191 0.504 3.918 1.066 5.191 1.227 c 1.277 0.16 2.074 0.5 2.551 -0.488 c 0.004 0 0.098 -0.246 0.227 -0.602 c 0.414 -1.238 0.469 -2.34 0.469 -3.137 c 0 -0.078 0.121 -0.082 0.121 0 c 0 0.563 -0.109 2.551 1.41 3.086 c 0.602 0.211 1.844 0.398 3.109 0.543 c 1.145 0.129 1.973 0.574 1.973 3.477 c 0 1.762 -0.375 2 -2.332 2 c -1.59 0 -2.195 0.043 -2.195 -1.207 c 0 -1.01 1.01 -0.902 1.758 -0.902 c 0.332 0 0.09 -0.246 0.09 -0.867 c 0 -0.617 0.391 -0.977 0.02 -0.984 c -2.582 -0.07 -4.105 -0.004 -4.105 3.191 c 0 2.902 1.125 3.441 4.793 3.441 c 2.875 0 3.891 -0.094 5.078 -3.738 c 0.234 -0.719 0.805 -2.914 1.148 -6.598 c 0.215 -2.332 -0.207 -9.363 -0.543 -11.141 m -5.01 7.773 c -0.355 -0.012 -0.699 0.012 -1.016 0.063 c 0.09 -0.719 0.387 -1.598 1.445 -1.559 c 1.176 0.039 1.34 1.137 1.344 1.879 c -0.496 -0.219 -1.105 -0.359 -1.773 -0.383 m 0 0" fill="#000"/></g></g></g></g><g><g clip-path="url(#clipPath-977433026)"><g transform="translate(0,-1)"><!-- color: #6cce3d --><g><path d="m 15.199 16.04 l 2.469 0 c 0.141 0 0.254 -0.113 0.254 -0.254 c 0 0 -0.031 -2.09 -0.031 -2.672 l 0 -0.008 c 0 -0.477 0.102 -0.895 0.281 -1.242 l 0.082 -0.156 c -0.008 0 -0.02 0.004 -0.027 0.016 l -4.797 4.699 c -0.008 0.008 -0.012 0.02 -0.016 0.031 c 0.098 -0.051 0.234 -0.117 0.254 -0.125 c 0.418 -0.188 0.922 -0.289 1.531 -0.289 m 19.2 -0.512 c -0.195 -1.039 -0.816 -1.547 -1.383 -1.75 c -0.609 -0.219 -1.844 -0.441 -3.391 -0.621 c -1.25 -0.148 -2.715 -0.137 -3.602 -0.109 c -0.105 -0.719 -0.617 -1.375 -1.188 -1.605 c -1.523 -0.605 -3.875 -0.457 -4.48 -0.289 c -0.477 0.129 -1.01 0.402 -1.305 0.82 c -0.199 0.281 -0.328 0.641 -0.328 1.141 c 0 0.281 0.008 0.949 0.016 1.543 c 0.008 0.594 0.016 1.129 0.016 1.129 c 0 0.531 -0.434 0.961 -0.973 0.965 l -2.469 0 c -0.527 0 -0.93 0.086 -1.234 0.223 c -0.309 0.141 -0.527 0.324 -0.691 0.547 c -0.332 0.438 -0.387 0.977 -0.387 1.527 c 0 0 0.004 0.449 0.113 1.324 c 0.094 0.672 0.832 5.383 1.535 6.816 c 0.273 0.559 0.453 0.789 0.988 1.035 c 1.191 0.504 3.918 1.066 5.191 1.227 c 1.277 0.16 2.074 0.5 2.551 -0.488 c 0.004 0 0.098 -0.246 0.227 -0.602 c 0.414 -1.238 0.469 -2.34 0.469 -3.137 c 0 -0.078 0.121 -0.082 0.121 0 c 0 0.563 -0.109 2.551 1.41 3.086 c 0.602 0.211 1.844 0.398 3.109 0.543 c 1.145 0.129 1.973 0.574 1.973 3.477 c 0 1.762 -0.375 2 -2.332 2 c -1.59 0 -2.195 0.043 -2.195 -1.207 c 0 -1.01 1.01 -0.902 1.758 -0.902 c 0.332 0 0.09 -0.246 0.09 -0.867 c 0 -0.617 0.391 -0.977 0.02 -0.984 c -2.582 -0.07 -4.105 -0.004 -4.105 3.191 c 0 2.902 1.125 3.441 4.793 3.441 c 2.875 0 3.891 -0.094 5.078 -3.738 c 0.234 -0.719 0.805 -2.914 1.148 -6.598 c 0.215 -2.332 -0.207 -9.363 -0.543 -11.141 m -5.01 7.773 c -0.355 -0.012 -0.699 0.012 -1.016 0.063 c 0.09 -0.719 0.387 -1.598 1.445 -1.559 c 1.176 0.039 1.34 1.137 1.344 1.879 c -0.496 -0.219 -1.105 -0.359 -1.773 -0.383 m 0 0" fill="#2d2d2d"/></g></g></g></g><g><g transform="translate(0,-1004.3622)"><path d="m 1 1043.36 0 4 c 0 2.216 1.784 4 4 4 l 38 0 c 2.216 0 4 -1.784 4 -4 l 0 -4 c 0 2.216 -1.784 4 -4 4 l -38 0 c -2.216 0 -4 -1.784 -4 -4 z" opacity="0.1"/></g></g></svg>
